germany/municipalities/07134068.svg

<?xml version="1.0" encoding="UTF-8" standalone="no"?>
<!-- Created with Inkscape (http://www.inkscape.org/) -->

<svg
   xmlns:dc="http://purl.org/dc/elements/1.1/"
   xmlns:cc="http://creativecommons.org/ns#"
   xmlns:rdf="http://www.w3.org/1999/02/22-rdf-syntax-ns#"
   xmlns:svg="http://www.w3.org/2000/svg"
   xmlns="http://www.w3.org/2000/svg"
   xmlns:sodipodi="http://sodipodi.sourceforge.net/DTD/sodipodi-0.dtd"
   xmlns:inkscape="http://www.inkscape.org/namespaces/inkscape"
   width="187.11676mm"
   height="209.3436mm"
   viewBox="0 0 187.11676 209.3436"
   version="1.1"
   id="svg3202"
   sodipodi:docname="DEU Reichenbach COA.svg"
   inkscape:version="0.92.4 (5da689c313, 2019-01-14)">
  <defs
     id="defs3196">
    <inkscape:path-effect
       effect="spiro"
       id="path-effect4962"
       is_visible="true" />
  </defs>
  <sodipodi:namedview
     id="base"
     pagecolor="#ffffff"
     bordercolor="#666666"
     borderopacity="1.0"
     inkscape:pageopacity="0.0"
     inkscape:pageshadow="2"
     inkscape:zoom="0.69260141"
     inkscape:cx="353.60646"
     inkscape:cy="395.60995"
     inkscape:document-units="mm"
     inkscape:current-layer="layer1"
     showgrid="false"
     inkscape:window-width="1366"
     inkscape:window-height="745"
     inkscape:window-x="-8"
     inkscape:window-y="-8"
     inkscape:window-maximized="1"
     fit-margin-top="0"
     fit-margin-left="0"
     fit-margin-right="0"
     fit-margin-bottom="0"
     inkscape:snap-midpoints="true"
     inkscape:snap-smooth-nodes="true"
     inkscape:snap-nodes="true" />
  <metadata
     id="metadata3199">
    <rdf:RDF>
      <cc:Work
         rdf:about="">
        <dc:format>image/svg+xml</dc:format>
        <dc:type
           rdf:resource="http://purl.org/dc/dcmitype/StillImage" />
        <dc:title></dc:title>
      </cc:Work>
    </rdf:RDF>
  </metadata>
  <g
     inkscape:label="Ebene 1"
     inkscape:groupmode="layer"
     id="layer1"
     transform="translate(-4.169336,-10.783599)">
    <path
       style="fill:#0099ff;fill-opacity:1;fill-rule:evenodd;stroke:none;stroke-width:3.10444427;stroke-opacity:1"
       inkscape:connector-curvature="0"
       d="M 5.733926,12.335823 6.667086,129.9165 c 2.03629,49.45939 42.26926,88.63079 91.060655,88.65847 48.747459,-0.0606 88.995479,-39.24616 91.060609,-88.65847 L 189.7215,12.335823 H 97.729931 Z"
       id="path10563-0-6-7-2-9"
       sodipodi:nodetypes="ccccccc" />
    <path
       style="fill:#ffffff;stroke:#000000;stroke-width:5;stroke-linecap:butt;stroke-linejoin:round;stroke-miterlimit:4;stroke-dasharray:none;stroke-opacity:1"
       d="M 308.06836 261.41016 C 268.88774 267.35366 232.31772 289.01678 208.28125 320.52344 C 196.50893 335.95442 187.76516 353.42604 178.25586 370.3457 C 168.74655 387.26536 158.20562 403.97539 143.67773 416.8457 C 129.1563 429.71031 111.33701 438.1438 93.783203 446.4043 C 76.229391 454.66483 58.412061 463.09438 43.890625 475.95898 C 33.088493 485.52865 24.502886 497.23107 16.894531 509.55469 C 27.568041 559.75114 48.849971 605.87713 78.193359 645.45898 C 84.395725 635.17661 89.999268 624.49687 95.886719 614.02148 C 105.39602 597.10186 115.93501 580.39183 130.46289 567.52148 C 144.98433 554.65688 162.8036 546.22339 180.35742 537.96289 C 197.91125 529.70239 215.73051 521.27082 230.25195 508.40625 C 244.77983 495.5359 255.32076 478.82392 264.83008 461.9043 C 274.33938 444.98464 283.08315 427.51695 294.85547 412.08594 C 318.89194 380.5793 355.46198 358.91424 394.64258 352.9707 L 308.06836 261.41016 z "
       transform="matrix(0.26458333,0,0,0.26458333,4.169336,10.783599)"
       id="path4960-2" />
    <path
       inkscape:connector-curvature="0"
       style="fill:#ff0000;stroke:none;stroke-width:2.9104166;stroke-linecap:round;stroke-linejoin:round;stroke-miterlimit:4;stroke-dasharray:none;stroke-opacity:1;fill-opacity:1"
       d="m 189.72133,12.33596 -0.93276,117.58042 c -0.94095,22.51421 -9.81188,42.90296 -23.79906,58.43726 L 5.734116,12.33596 h 91.995935 z"
       id="path3507" />
    <path
       inkscape:connector-curvature="0"
       style="fill:#ffffff;fill-opacity:1;stroke:#000000;stroke-width:1.32291663;stroke-linecap:round;stroke-linejoin:round;stroke-miterlimit:4;stroke-dasharray:none;stroke-opacity:1;paint-order:markers fill stroke"
       d="m 189.72133,12.33596 -0.35708,44.9833 h -44.62622 v -44.9833 z m -44.9833,44.9833 v 44.9833 H 99.754211 v -44.9833 z m -44.983819,0 H 54.770916 v -44.9833 h 42.959135 2.02416 z m -44.983295,0 v 9.214943 l -8.33748,-9.214943 z m 44.983295,44.9833 v 13.94954 l -12.62094,-13.94954 z m 44.983819,0 h 44.26965 l -0.21911,27.61382 c -0.24893,5.95628 -1.05835,11.76177 -2.36523,17.37 h -41.68531 z m 0,44.98382 v 18.68413 l -16.90491,-18.68413 z"
       id="rect3527" />
    <path
       inkscape:connector-curvature="0"
       style="fill:none;stroke:#000000;stroke-width:2.9104166;stroke-linecap:round;stroke-linejoin:round;stroke-miterlimit:4;stroke-dasharray:none;stroke-opacity:1"
       d="m 189.72124,12.335996 -0.93276,117.580414 c -0.94095,22.5142 -9.81188,42.90295 -23.79906,58.43726 L 5.734026,12.335996 h 91.995935 z"
       id="path3507-7" />
    <path
       style="fill:#ffffff;fill-opacity:1;stroke:#000000;stroke-width:5;stroke-linecap:round;stroke-linejoin:round;stroke-miterlimit:4;stroke-dasharray:none;stroke-opacity:1;paint-order:markers fill stroke"
       d="M 353.60547 661.625 A 83.19614 77.596407 0 0 0 278.73438 705.61133 A 55.807654 51.997591 33.514042 0 0 275.20898 703.06836 A 55.807654 51.997591 33.514042 0 0 245.51758 693.29297 A 55.807654 51.997591 33.514042 0 0 199.9707 715.60742 A 55.807654 51.997591 33.514042 0 0 191.89062 744.28906 C 240.20038 770.47128 295.28163 785.32043 353.60742 785.35352 C 411.9367 785.281 467.0354 770.37039 515.36523 744.12109 A 51.997591 55.807654 56.485958 0 0 507.24219 715.60742 A 51.997591 55.807654 56.485958 0 0 461.69336 693.29297 A 51.997591 55.807654 56.485958 0 0 432.00195 703.06836 A 51.997591 55.807654 56.485958 0 0 428.51562 705.61914 A 83.19614 77.596407 0 0 0 353.60547 661.625 z "
       transform="matrix(0.26458333,0,0,0.26458333,4.169336,10.783599)"
       id="path5283" />
    <path
       style="fill:none;fill-rule:evenodd;stroke:#000000;stroke-width:3.10444427;stroke-opacity:1"
       inkscape:connector-curvature="0"
       d="M 5.733926,12.335822 6.667086,129.9165 c 2.03629,49.45939 42.26926,88.63079 91.060655,88.65847 48.747459,-0.0606 88.995479,-39.24616 91.060609,-88.65847 L 189.7215,12.335822 H 97.729931 Z"
       id="path10563-0-6-7-2"
       sodipodi:nodetypes="ccccccc" />
    <path
       style="fill:#ffffff;stroke:#000000;stroke-width:5;stroke-linecap:butt;stroke-linejoin:round;stroke-miterlimit:4;stroke-dasharray:none;stroke-opacity:1"
       d="M 48.5 188.08398 L 69.802734 258.08984 A 31.580391 31.580391 0 0 0 50.292969 287.24414 A 31.580391 31.580391 0 0 0 69.798828 316.41211 L 48.5 386.40234 L 81.873047 386.40234 L 115.24805 386.40234 L 93.943359 316.39844 A 31.580391 31.580391 0 0 0 113.45508 287.24414 A 31.580391 31.580391 0 0 0 93.947266 258.07422 L 115.24805 188.08398 L 81.873047 188.08398 L 48.5 188.08398 z M 295.70898 452.88281 L 317.01367 522.89062 A 31.580391 31.580391 0 0 0 297.50391 552.04297 A 31.580391 31.580391 0 0 0 317.00781 581.21289 L 295.70898 651.20117 L 329.08203 651.20117 L 362.45703 651.20117 L 341.15234 581.19727 A 31.580391 31.580391 0 0 0 360.66406 552.04297 A 31.580391 31.580391 0 0 0 341.15625 522.87305 L 362.45703 452.88281 L 329.08203 452.88281 L 295.70898 452.88281 z "
       transform="matrix(0.26458333,0,0,0.26458333,4.169336,10.783599)"
       id="path5337" />
    <rect
       style="fill:#ffffff;fill-opacity:1;stroke:#000000;stroke-width:1.32299995;stroke-linecap:round;stroke-linejoin:round;stroke-miterlimit:4;stroke-dasharray:none;stroke-opacity:1;paint-order:markers fill stroke"
       id="rect5335"
       width="4.3402562"
       height="4.9389119"
       x="89.069252"
       y="154.37541" />
    <rect
       style="fill:#ffffff;fill-opacity:1;stroke:#000000;stroke-width:1.32299995;stroke-linecap:round;stroke-linejoin:round;stroke-miterlimit:4;stroke-dasharray:none;stroke-opacity:1;paint-order:markers fill stroke"
       id="rect5335-0"
       width="4.3402562"
       height="4.9389119"
       x="23.661772"
       y="84.313919" />
  </g>
</svg>

<svg xmlns="http://www.w3.org/2000/svg" width="707.213" height="791.22" viewBox="0 0 187.117 209.344"><path style="fill:#09f;fill-opacity:1;fill-rule:evenodd;stroke:none;stroke-width:3.10444427;stroke-opacity:1" d="m5.734 12.336.933 117.58c2.036 49.46 42.27 88.631 91.06 88.659 48.748-.06 88.996-39.246 91.061-88.658l.933-117.581H97.73z" transform="translate(-4.17 -10.784)"/><path style="fill:#fff;stroke:#000;stroke-width:5;stroke-linecap:butt;stroke-linejoin:round;stroke-miterlimit:4;stroke-dasharray:none;stroke-opacity:1" d="M308.068 261.41c-39.18 5.944-75.75 27.607-99.787 59.113-11.772 15.431-20.516 32.903-30.025 49.823-9.51 16.92-20.05 33.63-34.578 46.5-14.522 12.864-32.341 21.298-49.895 29.558-17.554 8.26-35.37 16.69-49.892 29.555-10.803 9.57-19.388 21.272-26.996 33.596a350.472 350.472 0 0 0 61.298 135.904c6.203-10.282 11.806-20.962 17.694-31.438 9.509-16.92 20.048-33.63 34.576-46.5 14.521-12.864 32.34-21.298 49.894-29.558 17.554-8.26 35.374-16.692 49.895-29.557 14.528-12.87 25.069-29.582 34.578-46.502 9.51-16.92 18.253-34.387 30.025-49.818 24.037-31.507 60.607-53.172 99.788-59.115l-86.575-91.56z" transform="scale(.26458)"/><path style="fill:red;stroke:none;stroke-width:2.9104166;stroke-linecap:round;stroke-linejoin:round;stroke-miterlimit:4;stroke-dasharray:none;stroke-opacity:1;fill-opacity:1" d="m189.721 12.336-.932 117.58c-.941 22.515-9.812 42.903-23.8 58.438L5.735 12.336H97.73z" transform="translate(-4.17 -10.784)"/><path style="fill:#fff;fill-opacity:1;stroke:#000;stroke-width:1.32291663;stroke-linecap:round;stroke-linejoin:round;stroke-miterlimit:4;stroke-dasharray:none;stroke-opacity:1;paint-order:markers fill stroke" d="m189.721 12.336-.357 44.983h-44.626V12.336zm-44.983 44.983v44.984H99.754V57.319zm-44.984 0H54.771V12.336H99.754zm-44.983 0v9.215l-8.338-9.215zm44.983 44.984v13.95l-12.62-13.95zm44.984 0h44.27l-.22 27.613a93.728 93.728 0 0 1-2.365 17.37h-41.685zm0 44.983v18.685l-16.905-18.685z" transform="translate(-4.17 -10.784)"/><path style="fill:none;stroke:#000;stroke-width:2.9104166;stroke-linecap:round;stroke-linejoin:round;stroke-miterlimit:4;stroke-dasharray:none;stroke-opacity:1" d="m189.721 12.336-.933 117.58c-.94 22.515-9.811 42.903-23.799 58.438L5.734 12.336H97.73z" transform="translate(-4.17 -10.784)"/><path style="fill:#fff;fill-opacity:1;stroke:#000;stroke-width:5;stroke-linecap:round;stroke-linejoin:round;stroke-miterlimit:4;stroke-dasharray:none;stroke-opacity:1;paint-order:markers fill stroke" d="M353.605 661.625a83.196 77.596 0 0 0-74.87 43.986 55.808 51.998 33.514 0 0-3.526-2.543 55.808 51.998 33.514 0 0-29.691-9.775 55.808 51.998 33.514 0 0-45.547 22.314 55.808 51.998 33.514 0 0-8.08 28.682c48.31 26.182 103.39 41.031 161.716 41.065 58.33-.073 113.428-14.984 161.758-41.233a51.998 55.808 56.486 0 0-8.123-28.514 51.998 55.808 56.486 0 0-45.549-22.314 51.998 55.808 56.486 0 0-29.691 9.775 51.998 55.808 56.486 0 0-3.486 2.551 83.196 77.596 0 0 0-74.91-43.994z" transform="scale(.26458)"/><path style="fill:none;fill-rule:evenodd;stroke:#000;stroke-width:3.10444427;stroke-opacity:1" d="m5.734 12.336.933 117.58c2.036 49.46 42.27 88.631 91.06 88.659 48.748-.06 88.996-39.246 91.061-88.658l.933-117.581H97.73z" transform="translate(-4.17 -10.784)"/><path style="fill:#fff;stroke:#000;stroke-width:5;stroke-linecap:butt;stroke-linejoin:round;stroke-miterlimit:4;stroke-dasharray:none;stroke-opacity:1" d="m48.5 188.084 21.303 70.006a31.58 31.58 0 0 0-19.51 29.154 31.58 31.58 0 0 0 19.506 29.168L48.5 386.402H115.248l-21.305-70.004a31.58 31.58 0 0 0 19.512-29.154 31.58 31.58 0 0 0-19.508-29.17l21.301-69.99H48.5zm247.209 264.799 21.305 70.008a31.58 31.58 0 0 0-19.51 29.152 31.58 31.58 0 0 0 19.504 29.17L295.709 651.2H362.457l-21.305-70.004a31.58 31.58 0 0 0 19.512-29.154 31.58 31.58 0 0 0-19.508-29.17l21.301-69.99H295.709z" transform="scale(.26458)"/><path style="fill:#fff;fill-opacity:1;stroke:#000;stroke-width:1.32299995;stroke-linecap:round;stroke-linejoin:round;stroke-miterlimit:4;stroke-dasharray:none;stroke-opacity:1;paint-order:markers fill stroke" d="M89.069 154.375h4.34v4.939h-4.34zM23.662 84.314h4.34v4.939h-4.34z" transform="translate(-4.17 -10.784)"/></svg>
